src/svg/git-commit.svg

<svg height="16" width="14" xmlns="http://www.w3.org/2000/svg" viewBox="0 0 14 16">
  <path d="M10.86 7c-0.45-1.72-2-3-3.86-3s-3.41 1.28-3.86 3H0v2h3.14c0.45 1.72 2 3 3.86 3s3.41-1.28 3.86-3h3.14V7H10.86zM7 10.2c-1.22 0-2.2-0.98-2.2-2.2s0.98-2.2 2.2-2.2 2.2 0.98 2.2 2.2-0.98 2.2-2.2 2.2z" />
</svg>

<?xml version="1.0" encoding="UTF-8" standalone="no"?>
<svg width="14px" height="16px" viewBox="0 0 14 16" version="1.1" xmlns="http://www.w3.org/2000/svg" xmlns:xlink="http://www.w3.org/1999/xlink">
    <!-- Generator: Sketch 3.7.1 (28215) - http://www.bohemiancoding.com/sketch -->
    <title>git-commit</title>
    <desc>Created with Sketch.</desc>
    <defs></defs>
    <g id="Octicons" stroke="none" stroke-width="1" fill="none" fill-rule="evenodd">
        <g id="git-commit" fill="#000000">
            <path d="M10.86,7 C10.41,5.28 8.86,4 7,4 C5.14,4 3.59,5.28 3.14,7 L0,7 L0,9 L3.14,9 C3.59,10.72 5.14,12 7,12 C8.86,12 10.41,10.72 10.86,9 L14,9 L14,7 L10.86,7 L10.86,7 Z M7,10.2 C5.78,10.2 4.8,9.22 4.8,8 C4.8,6.78 5.78,5.8 7,5.8 C8.22,5.8 9.2,6.78 9.2,8 C9.2,9.22 8.22,10.2 7,10.2 L7,10.2 Z" id="Shape"></path>
        </g>
    </g>
</svg>
